icon-svg/tuya.svg

<svg xmlns="http://www.w3.org/2000/svg" viewBox="0 0 24 24"><path fill="#44739e" d="M12 2a10 10 0 1 0 10 10A10 10 0 0 0 12 2m2.611 14.365a1.7 1.7 0 0 1-.626.059 6.7 6.7 0 0 1-1.187-.051 3.17 3.17 0 0 1-2.003-1.241 3.3 3.3 0 0 1-.632-2.05c.02-.603.045-1.206.066-1.808h-.887a.81.81 0 0 1-.766-.72.884.884 0 0 1 .813-.964h.897c.014-.384.022-.768.041-1.151a.884.884 0 0 1 .941-.795.813.813 0 0 1 .749.803c-.008.382-.025.764-.037 1.147h2.4a.81.81 0 0 1 .782.721.884.884 0 0 1-.835.97h-2.41l-.067 1.758a1.65 1.65 0 0 0 .429 1.205 1.56 1.56 0 0 0 1.105.494c.342.006.685 0 1.027 0a.81.81 0 0 1 .746.717.88.88 0 0 1-.546.906m1.479-6.427a.33.33 0 0 1-.274-.059.34.34 0 0 1-.144-.22.8.8 0 0 0-.081-.502.63.63 0 0 0-.542-.321h-.036a.7.7 0 0 0-.233.052.4.4 0 0 1-.217.034.33.33 0 0 1-.248-.181.33.33 0 0 1-.014-.301c.077-.183.301-.241.526-.284a1.34 1.34 0 0 1 1.082.309 1.36 1.36 0 0 1 .455 1.174.35.35 0 0 1-.277.298Zm1.847-.324a.345.345 0 0 1-.414.277.35.35 0 0 1-.277-.383 2.11 2.11 0 0 0-2.093-2.382 2 2 0 0 0-.589.086 2 2 0 0 0-.201.073.45.45 0 0 1-.375.051.35.35 0 0 1-.089-.597 2.5 2.5 0 0 1 .883-.282 2.802 2.802 0 0 1 3.152 3.158Z"/></svg>

<?xml version="1.0" encoding="UTF-8"?>
<svg width="24px" fill="#44739e" height="24px" viewBox="0 0 24 24" version="1.1" xmlns="http://www.w3.org/2000/svg" xmlns:xlink="http://www.w3.org/1999/xlink">
            <path d="M 12,2.042 A 9.958,9.958 0 1 0 21.958,12 9.958,9.958 0 0 0 12,2.042 Z m 2.6,14.305 a 1.653,1.653 0 0 1 -0.623,0.058 6.668,6.668 0 0 1 -1.182,-0.05 3.157,3.157 0 0 1 -1.995,-1.236 3.286,3.286 0 0 1 -0.629,-2.042 c 0.02,-0.6 0.045,-1.2 0.065,-1.8 -0.295,0 -0.589,0 -0.883,0 A 0.81,0.81 0 0 1 8.59,10.56 0.881,0.881 0 0 1 9.4,9.6 c 0.3,0 0.6,0 0.893,0 0.014,-0.382 0.022,-0.765 0.041,-1.146 a 0.881,0.881 0 0 1 0.937,-0.792 0.811,0.811 0 0 1 0.746,0.8 c -0.008,0.38 -0.025,0.761 -0.037,1.142 h 2.39 a 0.811,0.811 0 0 1 0.779,0.718 0.882,0.882 0 0 1 -0.832,0.966 c -0.8,0 -1.6,0 -2.4,0 -0.024,0.584 -0.044,1.167 -0.066,1.751 a 1.641,1.641 0 0 0 0.427,1.2 1.554,1.554 0 0 0 1.1,0.491 c 0.341,0.006 0.682,0 1.023,0 a 0.812,0.812 0 0 1 0.743,0.714 0.881,0.881 0 0 1 -0.544,0.903 z m 1.473,-6.4 A 0.331,0.331 0 0 1 15.8,9.888 0.342,0.342 0 0 1 15.657,9.669 0.787,0.787 0 0 0 15.576,9.169 0.633,0.633 0 0 0 15.036,8.849 H 15 a 0.687,0.687 0 0 0 -0.232,0.052 0.376,0.376 0 0 1 -0.216,0.034 0.334,0.334 0 0 1 -0.247,-0.18 0.326,0.326 0 0 1 -0.014,-0.3 c 0.077,-0.182 0.3,-0.24 0.524,-0.283 A 1.334,1.334 0 0 1 15.893,8.48 1.349,1.349 0 0 1 16.346,9.649 0.35,0.35 0 0 1 16.07,9.946 Z M 17.912,9.624 A 0.344,0.344 0 0 1 17.5,9.9 0.348,0.348 0 0 1 17.224,9.518 2.1,2.1 0 0 0 15.14,7.146 2.02,2.02 0 0 0 14.553,7.232 1.466,1.466 0 0 0 14.353,7.305 0.454,0.454 0 0 1 13.98,7.356 0.351,0.351 0 0 1 13.891,6.761 2.512,2.512 0 0 1 14.77,6.48 2.789,2.789 0 0 1 17.909,9.625 Z"/>

</svg>
